X:0
T:Highland Laddie
S:a set of tunebooks for the Boys Brigade before WW1, NLS Acc.9950
N:not quite like any other version I've
N:seen but they're all in the same mode
M:2/4
L:1/16
Q:1/4=96
K:BMin
% minor/phrygian hexatonic, B-mode C-gap
BA|d2e2 f2a2|gfed f4  |f2e2 e2de|f2e2 e2dB|
   d2e2 f2a2|gfed f2ef|d2B2 B2AB|d2B2 BB :|
g2|a2gf g2fe|f2ed f4  |f2e2 e2de|f2e2 e2g2|
   a2gf g2fe|f2ed f2ef|d2B2 B2AB|d2B2 BB :|
